assets/sonr-icons/atom.svg

<svg xmlns="http://www.w3.org/2000/svg" width="24" height="24" fill="none" viewBox="0 0 24 24"><path fill="#000" d="M20.501 12.032C20.645 11.84 20.813 11.648 20.933 11.48C22.397 9.48796 22.781 7.63996 22.013 6.31996C21.173 4.83196 19.037 4.35196 16.325 4.78396C15.341 2.23996 13.853 0.631958 12.149 0.631958C10.445 0.631958 8.957 2.23996 7.973 4.80796C7.733 4.75996 7.493 4.73596 7.277 4.71196C4.805 4.42396 3.029 4.99996 2.261 6.31996C1.421 7.80796 2.069 9.89596 3.797 12.032C3.653 12.224 3.509 12.392 3.365 12.584C1.901 14.576 1.517 16.424 2.285 17.744C2.933 18.872 4.349 19.424 6.197 19.424C6.749 19.424 7.349 19.376 7.997 19.256C8.957 21.824 10.445 23.432 12.149 23.432C13.853 23.432 15.341 21.824 16.325 19.256C16.949 19.352 17.549 19.4 18.101 19.4C19.949 19.4 21.341 18.848 22.013 17.72C22.781 16.4 22.397 14.576 20.933 12.56C20.789 12.392 20.645 12.2 20.501 12.032ZM18.125 5.81596C19.565 5.81596 20.573 6.19996 21.005 6.91996C21.509 7.78396 21.125 9.19996 19.973 10.76C19.877 10.88 19.781 11 19.685 11.12C18.989 10.4 18.197 9.70396 17.333 9.03196C17.189 7.90396 16.973 6.87196 16.709 5.91196C17.213 5.86396 17.693 5.81596 18.125 5.81596ZM14.237 15.631C13.517 16.039 12.821 16.399 12.149 16.711C11.477 16.399 10.781 16.039 10.061 15.631C9.365 15.223 8.717 14.791 8.093 14.383C8.021 13.639 7.973 12.871 7.973 12.031C7.973 11.215 8.021 10.423 8.093 9.67896C8.717 9.22296 9.365 8.81496 10.061 8.40696C10.757 7.99896 11.453 7.66296 12.125 7.35096C12.821 7.66296 13.517 8.02296 14.213 8.43096C14.909 8.83896 15.581 9.27096 16.205 9.70296C16.277 10.447 16.325 11.215 16.325 12.031C16.325 12.847 16.277 13.615 16.205 14.359C15.581 14.791 14.933 15.223 14.237 15.631ZM15.989 15.944C15.869 16.64 15.725 17.312 15.533 17.888C14.933 17.744 14.285 17.552 13.613 17.312C14.021 17.12 14.405 16.88 14.813 16.664C15.221 16.424 15.605 16.184 15.989 15.944ZM10.661 17.312C10.013 17.552 9.365 17.744 8.765 17.888C8.597 17.288 8.453 16.64 8.309 15.968C8.669 16.208 9.053 16.448 9.461 16.664C9.845 16.904 10.253 17.12 10.661 17.312ZM6.821 13.399C6.269 12.943 5.789 12.487 5.357 12.031C5.789 11.575 6.293 11.095 6.821 10.663C6.797 11.119 6.773 11.575 6.773 12.031C6.797 12.487 6.797 12.943 6.821 13.399ZM9.461 7.37596C9.053 7.61596 8.693 7.85596 8.309 8.09596C8.429 7.39996 8.573 6.75196 8.741 6.17596C9.365 6.31996 9.989 6.51196 10.637 6.75196C10.253 6.94396 9.869 7.15996 9.461 7.37596ZM13.613 6.72796C14.285 6.48796 14.933 6.29596 15.533 6.12796C15.701 6.72796 15.869 7.37596 15.989 8.09596C15.605 7.85596 15.221 7.61596 14.813 7.37596C14.429 7.15996 14.021 6.94396 13.613 6.72796ZM17.477 10.688C18.005 11.12 18.485 11.576 18.917 12.032C18.485 12.488 18.005 12.944 17.477 13.376C17.501 12.944 17.525 12.488 17.525 12.032C17.501 11.576 17.501 11.12 17.477 10.688ZM12.149 1.83196C13.229 1.83196 14.333 3.00796 15.149 5.04796C14.189 5.28796 13.181 5.62396 12.149 6.05596C11.141 5.62396 10.133 5.28796 9.173 5.04796C9.965 3.00796 11.069 1.83196 12.149 1.83196ZM3.293 6.91996C3.701 6.19996 4.709 5.81596 6.125 5.81596C6.437 5.81596 6.773 5.83996 7.133 5.86396C7.277 5.88796 7.445 5.91196 7.589 5.93596C7.325 6.87196 7.109 7.90396 6.965 9.00796C6.077 9.67996 5.261 10.376 4.565 11.12C3.221 9.41596 2.765 7.85596 3.293 6.91996ZM3.317 17.12C2.813 16.256 3.197 14.84 4.349 13.28C4.421 13.16 4.517 13.04 4.613 12.944C5.285 13.664 6.101 14.36 6.989 15.032C7.133 16.136 7.325 17.192 7.613 18.128C5.429 18.44 3.845 18.056 3.317 17.12ZM12.149 22.232C11.069 22.232 9.941 21.032 9.149 19.016C10.109 18.776 11.117 18.44 12.149 18.008C13.181 18.44 14.213 18.8 15.173 19.016C14.333 21.056 13.229 22.232 12.149 22.232ZM20.981 17.12C20.453 18.056 18.869 18.416 16.709 18.104C16.997 17.144 17.189 16.112 17.333 14.984C18.221 14.312 19.013 13.616 19.685 12.92C19.781 13.04 19.877 13.16 19.949 13.256C21.101 14.864 21.485 16.256 20.981 17.12Z"/><path fill="#000" d="M12.149 9.19995C10.589 9.19995 9.31699 10.472 9.31699 12.032C9.31699 13.592 10.589 14.864 12.149 14.864C13.709 14.864 14.981 13.592 14.981 12.032C14.981 10.472 13.709 9.19995 12.149 9.19995ZM12.149 11.144C11.645 11.144 11.261 11.552 11.261 12.032C11.261 12.272 11.069 12.488 10.805 12.488C10.565 12.488 10.349 12.296 10.349 12.032C10.349 11.048 11.165 10.232 12.149 10.232C12.389 10.232 12.605 10.424 12.605 10.688C12.605 10.952 12.389 11.144 12.149 11.144Z"/></svg>

<svg xmlns="http://www.w3.org/2000/svg" width="24" height="24" fill="none"><path fill="currentColor" d="M20.501 12.032c.144-.192.312-.384.432-.552 1.464-1.992 1.848-3.84 1.08-5.16-.84-1.488-2.976-1.968-5.688-1.536C15.341 2.24 13.853.632 12.149.632S8.957 2.24 7.973 4.808c-.24-.048-.48-.072-.696-.096C4.805 4.424 3.029 5 2.261 6.32c-.84 1.488-.192 3.576 1.536 5.712-.144.192-.288.36-.432.552-1.464 1.992-1.848 3.84-1.08 5.16.648 1.128 2.064 1.68 3.912 1.68.552 0 1.152-.048 1.8-.168.96 2.568 2.448 4.176 4.152 4.176s3.192-1.608 4.176-4.176a12 12 0 0 0 1.776.144c1.848 0 3.24-.552 3.912-1.68.768-1.32.384-3.144-1.08-5.16-.144-.168-.288-.36-.432-.528m-2.376-6.216c1.44 0 2.448.384 2.88 1.104.504.864.12 2.28-1.032 3.84l-.288.36a22 22 0 0 0-2.352-2.088 22.4 22.4 0 0 0-.624-3.12c.504-.048.984-.096 1.416-.096m-3.888 9.815q-1.08.612-2.088 1.08a29 29 0 0 1-2.088-1.08c-.696-.408-1.344-.84-1.968-1.248a24 24 0 0 1-.12-2.352c0-.816.048-1.608.12-2.352a23 23 0 0 1 1.968-1.272 24 24 0 0 1 2.064-1.056q1.044.468 2.088 1.08c.696.408 1.368.84 1.992 1.272.072.744.12 1.512.12 2.328s-.048 1.584-.12 2.328c-.624.432-1.272.864-1.968 1.272m1.752.313c-.12.696-.264 1.368-.456 1.944-.6-.144-1.248-.336-1.92-.576.408-.192.792-.432 1.2-.648.408-.24.792-.48 1.176-.72m-5.328 1.368c-.648.24-1.296.432-1.896.576a33 33 0 0 1-.456-1.92c.36.24.744.48 1.152.696.384.24.792.456 1.2.648m-3.84-3.913a16 16 0 0 1-1.464-1.368c.432-.456.936-.936 1.464-1.368-.024.456-.048.912-.048 1.368.024.456.024.912.048 1.368m2.64-6.023c-.408.24-.768.48-1.152.72.12-.696.264-1.344.432-1.92a15 15 0 0 1 1.896.576c-.384.192-.768.408-1.176.624m4.152-.648c.672-.24 1.32-.432 1.92-.6.168.6.336 1.248.456 1.968-.384-.24-.768-.48-1.176-.72a54 54 0 0 0-1.2-.648m3.864 3.96c.528.432 1.008.888 1.44 1.344-.432.456-.912.912-1.44 1.344.024-.432.048-.888.048-1.344-.024-.456-.024-.912-.048-1.344m-5.328-8.856c1.08 0 2.184 1.176 3 3.216a21 21 0 0 0-3 1.008 20 20 0 0 0-2.976-1.008c.792-2.04 1.896-3.216 2.976-3.216M3.293 6.92c.408-.72 1.416-1.104 2.832-1.104.312 0 .648.024 1.008.048.144.024.312.048.456.072a22 22 0 0 0-.624 3.072c-.888.672-1.704 1.368-2.4 2.112-1.344-1.704-1.8-3.264-1.272-4.2m.024 10.2c-.504-.864-.12-2.28 1.032-3.84.072-.12.168-.24.264-.336.672.72 1.488 1.416 2.376 2.088.144 1.104.336 2.16.624 3.096-2.184.312-3.768-.072-4.296-1.008m8.832 5.112c-1.08 0-2.208-1.2-3-3.216a21 21 0 0 0 3-1.008c1.032.432 2.064.792 3.024 1.008-.84 2.04-1.944 3.216-3.024 3.216m8.832-5.112c-.528.936-2.112 1.296-4.272.984.288-.96.48-1.992.624-3.12a20.3 20.3 0 0 0 2.352-2.064c.096.12.192.24.264.336 1.152 1.608 1.536 3 1.032 3.864"/><path fill="currentColor" d="M12.149 9.2a2.837 2.837 0 0 0-2.832 2.832 2.837 2.837 0 0 0 2.832 2.832 2.837 2.837 0 0 0 2.832-2.832A2.837 2.837 0 0 0 12.149 9.2m0 1.944a.886.886 0 0 0-.888.888.456.456 0 1 1-.912 0c0-.984.816-1.8 1.8-1.8a.456.456 0 1 1 0 .912"/></svg>
